X:1
T:ABCWeaver Functional Analysis Session
C:JamAI (G.Music Assembly)
M:4/4
L:1/8
K:D major
% â™ ï¸ğŸŒ¿ğŸ¸ğŸ¤–ğŸ§µ Assembly Mode Session Encoding
% Functional analysis journey through ABCWeaver repository
|: D2F2 A2d2 | F2A2 d4 | G2B2 e2g2 | B2e2 g4 :|
|: A4 G4 | F4 E4 | D2F2 A2F2 | G2E2 D4 :|
% First section: Discovery and exploration (D major foundation)
% Second section: Testing and validation (harmonic resolution)
% Rhythmic pattern reflects systematic analysis approach
% Key choice (D major) represents clarity and brightness of findings